libs/icons/src/svg/launch.svg

<svg width="16" height="16" viewBox="0 0 16 16" fill="none" xmlns="http://www.w3.org/2000/svg">
<g clip-path="url(#clip0_3_3777)">
<path fill-rule="evenodd" clip-rule="evenodd" d="M15.1381 0.861934C15.2022 0.926118 15.2506 1.00013 15.2831 1.07913C15.3153 1.15713 15.332 1.23998 15.3332 1.32303L15.3333 1.33447V6.66667C15.3333 7.03486 15.0348 7.33334 14.6667 7.33334C14.2985 7.33334 14 7.03486 14 6.66667V2.94281L7.80473 9.13808C7.54438 9.39843 7.12227 9.39843 6.86192 9.13808C6.60157 8.87773 6.60157 8.45562 6.86192 8.19527L13.0572 2.00001H9.33332C8.96513 2.00001 8.66666 1.70153 8.66666 1.33334C8.66666 0.965149 8.96513 0.666672 9.33332 0.666672H14.6666H14.6667C14.8373 0.666672 15.0079 0.731758 15.1381 0.861934ZM1.33332 2C0.965133 2 0.666656 2.29848 0.666656 2.66667V14.6667C0.666656 15.0349 0.965133 15.3333 1.33332 15.3333H13.3333C13.7015 15.3333 14 15.0349 14 14.6667V10C14 9.63181 13.7015 9.33333 13.3333 9.33333C12.9651 9.33333 12.6667 9.63181 12.6667 10V14H1.99999V3.33333H5.99999C6.36818 3.33333 6.66666 3.03486 6.66666 2.66667C6.66666 2.29848 6.36818 2 5.99999 2H1.33332Z" fill="#202327"/>
</g>
<defs>
<clipPath id="clip0_3_3777">
<rect width="16" height="16" fill="white"/>
</clipPath>
</defs>
</svg>

<svg xmlns="http://www.w3.org/2000/svg" viewBox="0 0 16 16" class="sageicon"><path fill-rule="evenodd" d="M15.138.862a.665.665 0 0 1 .195.461v5.344a.667.667 0 0 1-1.333 0V2.943L7.805 9.138a.667.667 0 1 1-.943-.943L13.057 2H9.333a.667.667 0 0 1 0-1.333h5.334c.17 0 .34.065.471.195ZM1.333 2a.667.667 0 0 0-.666.667v12c0 .368.298.666.666.666h12a.667.667 0 0 0 .667-.666V10a.667.667 0 0 0-1.333 0v4H2V3.333h4A.667.667 0 1 0 6 2H1.333Z"/></svg>
